X:1
T:Alma mia
T:Alma mia
T:Gio.Girolamo Kapsperger
C:Gio.Girolamo Kapsperger
%%score 1 { 2 | 3 }
L:1/8
Q:1/4=120
M:4/4
K:F
V:1 treble nm="Soprano" snm="S"
V:2 treble nm="BC" snm="BC"
V:3 bass 
V:1
 A2 B2 B4- | B2 d2 c2 B2 | A4 A4 | B2 c2 d4- |1 d2 F2 G3 G :|2 d2 F2 G3 G || F8 |: f2 f2 f4- | %8
w: Al- ma mia|_ do- ve ten-|na- i,|al- ma mia-|_ chi fug- gi|* chi fug- gi|tu|Un ch'o no-|
w: Fer- mal pas-|* s'o co- re'o|vi- ta,|_ mo- rir|da- van- ti'a te-|* da- van- ti'a|te.|Ahi ch'in- ten-|
w: La- gri- ma-|* te'oc- chi do-|len- te,|la- gri- ma-|t'el la sen- sua-|* t'el la sen-|sua.|In- fe- li-|
w: L'o- r'ohi me|_ del blon- di|cri- ne,|che si dol-|ce'il cor le- go,|* ce'il cor le-|go.|Ne le per-|
w: Ne ve- dro'|_ la man di|ro- se,|ch'al- l'au- ro-|ra scor- no fa,|* ra scor- no|fa.|Ne le ci-|
w: Sen- ti- ro'|_ ben giu nel|se- no,|fo- co tal-|ch'io ne- mon- so|* h'ia ne- mon-|so.|Lun- gi'o pres-|
 f2 f2 _e3 d | d4 d4 | d2 e^f g4- | g2 (3A/B/c/B A3 G | G8 :| %13
w: * va'i tuoi bei|ra- i,|on- d'il _ cor|_ fe- * * * bri to|fu.|
w: * ti'al- la par-|ti- ta,|fug- g'el _ cor|_ non _ _ _ men ch'el|pie.|
w: * ci'ec co- vi|spen- ti,|sen- za'i- * rai|_ di _ _ _ sua bel-|ta.|
w: * le pe- re-|gri- ne,|tra'i bei _ ri-|* si _ _ _ mi- re-|ro.|
w: * glia lu- mi-|no- se,|do- ve'a- * mor|_ con _ _ _ l'ar- cos-|ta.|
w: * so'ar- don non|me- no,|quei be- * gl'oc-|* chi'eb 'eb _ _ en- lo-|so.|
V:2
 D4 [DG]4- | [DG]2 [FA]2 [Gc]2 [GB]2 | [Ac]8 | [GB]2 c2 [Fd]4- |1 [Fd]2 [Ac]2 [EG]4 :|2 %5
 [Fd]2 [Ac]2 [EG]4 || [FAc]4 [FA]4 |: [FAc]8 | [Ec]2 [FA]2 [GB]2 [CA]2 | [DF]2 [DA]2 [B,G]2 [DF]2 | %10
 [DF]2 [EA]2 [DB]4 | [GB]2 [Ac]2 [^FAd]3 [Gd] | [DG=B]8 :| %13
V:3
 G,2 ^F,2 G,4- | G,2 D,2 E,4 | F,2 G,2 A,2 F,2 | _E,2 D,C, B,,4- |1 B,,2 A,,2 C,4 :|2 %5
 B,,2 A,,2 C,4 || F,2 F,,2 D,2 D,2 |: F,2 G,2 A,2 B,2 | A,2 D,2 _E,2 F,2 | B,,2 F,2 G,2 A,2 | %10
 B,2 A,2 G,2 F,2 | _E,2 C,2 D,3 D, | G,,8 :| %13

